icons/folder-event.svg

<svg xmlns="http://www.w3.org/2000/svg" viewBox="0 0 32 32">
  <path d="M13.84376,7.53645l-1.28749-1.0729A2,2,0,0,0,11.27591,6H4A2,2,0,0,0,2,8V24a2,2,0,0,0,2,2H28a2,2,0,0,0,2-2V10a2,2,0,0,0-2-2H15.12412A2,2,0,0,1,13.84376,7.53645Z" style="fill: #fbc02d"/>
  <g>
    <path d="M24,30a2,2,0,0,0,2-2H22A2,2,0,0,0,24,30Z" style="fill: #fff9c4;fill-rule: evenodd"/>
    <path d="M30,22V17a5.00112,5.00112,0,0,0-4-4.89923V12a2,2,0,0,0-4,0v.10077A5.00112,5.00112,0,0,0,18,17v5l-2,2v2H32V24Z" style="fill: #fff9c4;fill-rule: evenodd"/>
  </g>
</svg>

<svg xmlns="http://www.w3.org/2000/svg" viewBox="0 0 32 32"><path fill="#fbc02d" d="m13.844 7.536-1.288-1.072A2 2 0 0 0 11.276 6H4a2 2 0 0 0-2 2v16a2 2 0 0 0 2 2h24a2 2 0 0 0 2-2V10a2 2 0 0 0-2-2H15.124a2 2 0 0 1-1.28-.464Z"/><path fill="#fff9c4" fill-rule="evenodd" d="M24 30a2 2 0 0 0 2-2h-4a2 2 0 0 0 2 2Zm6-8v-5a5.001 5.001 0 0 0-4-4.9V12a2 2 0 0 0-4 0v.1a5.001 5.001 0 0 0-4 4.9v5l-2 2v2h16v-2Z"/></svg>
